icons/evernote-line.svg

<svg xmlns="http://www.w3.org/2000/svg" width="24" height="24" fill="none"><g clip-path="url(#a)"><g><path fill="#121212" d="M10.5 8.5C10.5 8.76522 10.3946 9.01957 10.2071 9.20711C10.0196 9.39464 9.76522 9.5 9.5 9.5H6.001C5.665 9.5 5.5 9.761 5.5 10.032C5.5 11.352 5.754 12.404 6.164 13.225C6.38 13.658 6.563 13.895 6.687 14.015C7.422 14.775 8.573 15.175 9.779 15.104C9.874 15.098 9.978 15.04 10.111 14.896C10.1939 14.8073 10.2657 14.7089 10.325 14.603C10.5298 14.1345 10.9062 13.7623 11.3769 13.5627C11.8476 13.3632 12.3769 13.3515 12.856 13.53C13.549 13.788 14.133 13.964 14.669 14.09C14.865 14.136 15.044 14.173 15.255 14.212C15.178 14.198 15.657 14.286 15.773 14.31C16.113 14.38 16.371 14.456 16.656 14.6C17.3529 14.9492 17.9601 15.4538 18.431 16.075C18.476 15.484 18.508 14.807 18.518 14.049C18.5505 11.8117 18.3633 9.57668 17.959 7.376C17.885 6.978 17.723 6.814 17.296 6.658C17.1047 6.59095 16.9084 6.53912 16.709 6.503C16.562 6.475 16.059 6.393 16.016 6.385C15.2359 6.24939 14.4559 6.11306 13.676 5.976L13.148 5.884C12.8066 5.82407 12.4866 5.67641 12.2194 5.45552C11.9522 5.23463 11.747 4.94809 11.624 4.624C11.6128 4.59462 11.6015 4.56529 11.59 4.536C11.357 4.5093 11.1225 4.49727 10.888 4.5C10.617 4.5 10.5 4.624 10.5 4.963V8.5ZM16.73 20.139C17.082 19.783 17.29 19.31 17.317 18.812C17.371 17.776 16.493 16.332 15 16.178C14.383 16.115 13.414 15.872 12.158 15.404C12.158 15.404 11.458 17.007 9.898 17.1C8.233 17.2 6.468 16.667 5.248 15.404C5.248 15.404 3.5 13.764 3.5 10.032C3.5 9.218 3.79 8.61 4.148 8.128C5.108 6.836 6.653 5.348 8.281 3.824C9 3.15 9.701 2.5 10.888 2.5C12.928 2.5 13.208 3.164 13.493 3.914L16.347 4.413C17.254 4.579 19.497 4.729 19.925 7.007C20.931 12.427 20.383 16.877 20.272 17.682C19.562 22.803 15.5 22.553 15.341 22.553C13.282 22.553 12.163 21.18 12.158 19.876C12.1565 19.4788 12.25 19.087 12.4305 18.7332C12.6111 18.3794 12.8735 18.0739 13.196 17.842C13.6417 17.5252 14.1763 17.3579 14.723 17.364C15.028 17.364 15.41 17.682 15.41 18.117C15.41 18.487 15.155 18.692 15.028 18.762C14.805 18.886 13.906 18.936 13.906 19.627C13.906 19.944 14.256 20.741 15.292 20.741C15.88 20.741 16.386 20.485 16.729 20.139H16.73ZM14.934 10.629C15.1 10.214 15.561 9.997 16.106 10.047C16.65 10.114 17.062 10.447 17.112 10.895C17.112 10.978 17.129 11.078 17.095 11.128C17.063 11.178 17.029 11.195 16.995 11.195C16.782 11.228 16.452 11.195 15.974 11.145C15.494 11.095 15.166 11.045 14.968 10.945C14.935 10.928 14.902 10.912 14.885 10.862C14.868 10.812 14.901 10.712 14.935 10.629H14.934Z"/></g></g><defs><clipPath id="a"><rect width="24" height="24" fill="white"/></clipPath></defs></svg>

<svg width="24" height="24" fill="none" xmlns="http://www.w3.org/2000/svg"><g clip-path="url(#a)"><path d="M10.5 8.5a1 1 0 0 1-1 1H6.001c-.336 0-.501.261-.501.532 0 1.32.254 2.372.664 3.193.216.433.399.67.523.79.735.76 1.886 1.16 3.092 1.089.095-.006.199-.064.332-.208.083-.089.155-.187.214-.293a2 2 0 0 1 2.531-1.073c.693.258 1.277.434 1.813.56.196.046.375.083.586.122-.077-.014.402.074.518.098.34.07.598.146.883.29.697.35 1.304.854 1.775 1.475a32.42 32.42 0 0 0 .087-2.026 34.182 34.182 0 0 0-.559-6.673c-.074-.398-.236-.562-.663-.718a3.849 3.849 0 0 0-.587-.155c-.147-.028-.65-.11-.693-.118l-2.34-.409-.528-.092a2 2 0 0 1-1.524-1.26 9.5 9.5 0 0 0-.034-.088 5.595 5.595 0 0 0-.702-.036c-.271 0-.388.124-.388.463V8.5Zm6.23 11.639c.352-.356.56-.829.587-1.327.054-1.036-.824-2.48-2.317-2.634-.617-.063-1.586-.306-2.842-.774 0 0-.7 1.603-2.26 1.696-1.665.1-3.43-.433-4.65-1.696 0 0-1.748-1.64-1.748-5.372 0-.814.29-1.422.648-1.904.96-1.292 2.505-2.78 4.133-4.304C9 3.15 9.701 2.5 10.888 2.5c2.04 0 2.32.664 2.605 1.414l2.854.499c.907.166 3.15.316 3.578 2.594 1.006 5.42.458 9.87.347 10.675-.71 5.121-4.772 4.871-4.931 4.871-2.059 0-3.178-1.373-3.183-2.677a2.494 2.494 0 0 1 1.038-2.034c.446-.317.98-.484 1.527-.478.305 0 .687.318.687.753a.74.74 0 0 1-.382.645c-.223.124-1.122.174-1.122.865 0 .317.35 1.114 1.386 1.114a2.03 2.03 0 0 0 1.437-.602h.001Zm-1.796-9.51c.166-.415.627-.632 1.172-.582.544.067.956.4 1.006.848 0 .083.017.183-.017.233-.032.05-.066.067-.1.067-.213.033-.543 0-1.021-.05-.48-.05-.808-.1-1.006-.2-.033-.017-.066-.033-.083-.083s.016-.15.05-.233h-.001Z" /></g><defs><clipPath id="a"><path fill="#fff" d="M0 0h24v24H0z"/></clipPath></defs></svg>
